svgs/finance_manager.svg

<svg width="192" height="192" viewBox="0 0 192 192" fill="none" xmlns="http://www.w3.org/2000/svg">
<path d="M169.57 124.5V86H125.25C114.619 86 106 94.6185 106 105.25C106 115.881 114.619 124.5 125.25 124.5H169.57Z" stroke="black" stroke-width="8" stroke-linecap="round" stroke-linejoin="round"/>
<path d="M135.116 105.558C135.116 110.285 131.285 114.116 126.558 114.116C121.832 114.116 118 110.285 118 105.558C118 100.832 121.832 97 126.558 97C131.285 97 135.116 100.832 135.116 105.558Z" stroke="black" stroke-width="6"/>
<path d="M161.372 55.6658C161.372 34.7483 150.753 25.8003 135.489 28.455L30.5144 45.6438C25.6045 46.4477 22 50.6904 22 55.6658V55.6658M22 55.6658V164.509H170V127V55.6658H151.417H22Z" stroke="black" stroke-width="12" stroke-linecap="round" stroke-linejoin="round"/>
</svg>

<svg width="192" height="192" viewBox="0 0 192 192" fill="none" xmlns="http://www.w3.org/2000/svg"><path d="M169.57 124.5V86h-44.32C114.619 86 106 94.618 106 105.25c0 10.631 8.619 19.25 19.25 19.25h44.32Z" stroke="#000" stroke-width="8" stroke-linecap="round" stroke-linejoin="round"/><path d="M135.116 105.558a8.558 8.558 0 1 1-17.116 0 8.558 8.558 0 0 1 17.116 0Z" stroke="#000" stroke-width="6"/><path d="M161.372 55.666c0-20.918-10.619-29.866-25.883-27.211L30.514 45.644A10.155 10.155 0 0 0 22 55.666v0m0 0v108.843h148V55.666H22Z" stroke="#000" stroke-width="12" stroke-linecap="round" stroke-linejoin="round"/></svg>
